X:11
T:Myfanwy
C:Joseph Parry
M:4/4
L:1/8
K:G
D2 | G3 G GG A>G/ | G2 F4 G2 | A3 A AA B>A/ | (A2G4)D2 |B3 B BB c>B/ | B2 A4 (FG) | A3 A Ac B^A | B6 D2 | E3 E EE G>E/ | E2 D4 G2 | F3 F GF GA | B6 d2 |d3 c E2 c2 | c3 B D HD G2 | [M:3/4] G3 G GF | B4 A2| [M:4/4] G6||
